plasma/desktoptheme/Materia/icons/zoom.svg

<svg xmlns="http://www.w3.org/2000/svg" width="32" height="32" version="1.1">
 <g id="16-16-zoom-fit-width" transform="translate(-435.0002,43)">
  <rect style="opacity:0.001" width="16" height="16" x="489" y="-59"/>
  <path style="fill:#dfdfdf" d="m 494.0002,-54.00334 -4,2.999999 4,3.000001 v -2.000001 h 6 v 2.000001 l 4,-3.000001 -4,-2.999999 v 2.000001 h -6 z"/>
 </g>
 <g id="16-16-zoom-fit-height" transform="rotate(90,242,-231)">
  <rect style="opacity:0.001" width="16" height="16" x="489" y="-59"/>
  <path style="fill:#dfdfdf" d="m 494.0002,-54.00334 -4,2.999999 4,3.000001 v -2.000001 h 6 v 2.000001 l 4,-3.000001 -4,-2.999999 v 2.000001 h -6 z"/>
 </g>
 <g id="22-22-zoom-fit-width" transform="translate(-433,43)">
  <rect style="opacity:0.001" width="22" height="22" x="465" y="-65"/>
  <path style="fill:#dfdfdf" d="m 472.0002,-58.00334 -5,4 5,4 v -3 h 8 v 3 l 5,-4 -5,-4 v 3 h -8 z"/>
 </g>
 <g id="zoom-fit-width" transform="translate(0,-32)">
  <rect style="opacity:0.001" width="32" height="32" x="0" y="0"/>
  <g>
   <rect style="opacity:0.2" width="14" height="4" x="9" y="15"/>
   <path style="opacity:0.2" d="M 10.202981,11.000734 A 1.7460457,1.722978 0 0 0 9.3811936,11.230386 L 5.6268885,13.36875 1.8725838,15.507957 a 1.7460457,1.722978 0 0 0 0,2.983785 l 3.7543047,2.139207 3.7543051,2.138365 A 1.7460457,1.722978 0 0 0 12,21.277842 V 17.00027 12.722698 a 1.7460457,1.722978 0 0 0 -1.797019,-1.721964 z"/>
   <path style="opacity:0.2" d="m 21.797019,11.000734 a 1.7460457,1.722978 0 0 1 0.821787,0.229652 l 3.754305,2.138364 3.754305,2.139207 a 1.7460457,1.722978 0 0 1 0,2.983785 l -3.754305,2.139207 -3.754305,2.138365 A 1.7460457,1.722978 0 0 1 20,21.277842 V 17.00027 12.722698 a 1.7460457,1.722978 0 0 1 1.797019,-1.721964 z"/>
   <rect style="fill:#8e8e8e" width="14" height="4" x="9" y="14"/>
   <path style="fill:#e4e4e4" d="M 10.202981,10.000734 A 1.7460457,1.722978 0 0 0 9.3811936,10.230386 L 5.6268885,12.36875 1.8725838,14.507957 a 1.7460457,1.722978 0 0 0 0,2.983785 l 3.7543047,2.139207 3.7543051,2.138365 A 1.7460457,1.722978 0 0 0 12,20.277842 V 16.00027 11.722698 a 1.7460457,1.722978 0 0 0 -1.797019,-1.721964 z"/>
   <path style="fill:#e4e4e4" d="m 21.797019,10.000734 a 1.7460457,1.722978 0 0 1 0.821787,0.229652 l 3.754305,2.138364 3.754305,2.139207 a 1.7460457,1.722978 0 0 1 0,2.983785 l -3.754305,2.139207 -3.754305,2.138365 A 1.7460457,1.722978 0 0 1 20,20.277842 V 16.00027 11.722698 a 1.7460457,1.722978 0 0 1 1.797019,-1.721964 z"/>
   <path style="opacity:0.2;fill:#ffffff" d="M 10.203125,10 A 1.7460457,1.722978 0 0 0 9.3808594,10.230469 L 5.6269531,12.369141 1.8730469,14.507812 A 1.7460457,1.722978 0 0 0 1.0761719,16.5 1.7460457,1.722978 0 0 1 1.8730469,15.507812 L 5.6269531,13.369141 9.3808594,11.230469 A 1.7460457,1.722978 0 0 1 10.203125,11 1.7460457,1.722978 0 0 1 12,12.722656 v -1 A 1.7460457,1.722978 0 0 0 10.203125,10 Z"/>
   <path style="opacity:0.2;fill:#ffffff" d="M 21.796875,10 A 1.7460457,1.722978 0 0 0 20,11.722656 v 1 A 1.7460457,1.722978 0 0 1 21.796875,11 a 1.7460457,1.722978 0 0 1 0.822266,0.230469 l 3.753906,2.138672 3.753906,2.138671 A 1.7460457,1.722978 0 0 1 30.923828,16.5 1.7460457,1.722978 0 0 0 30.126953,14.507812 L 26.373047,12.369141 22.619141,10.230469 A 1.7460457,1.722978 0 0 0 21.796875,10 Z"/>
  </g>
 </g>
 <g id="22-22-zoom-fit-height" transform="rotate(90,222,-233)">
  <rect style="opacity:0.001" width="22" height="22" x="465" y="-65"/>
  <path style="fill:#dfdfdf" d="m 472.0002,-58.00334 -5,4 5,4 v -3 h 8 v 3 l 5,-4 -5,-4 v 3 h -8 z"/>
 </g>
 <g id="zoom-fit-height" transform="translate(0,32)">
  <rect style="opacity:0.001" width="32" height="32" x="-32" y="-32" transform="rotate(90)"/>
  <rect style="fill:#8e8e8e" width="14" height="4" x="-23" y="-18" transform="rotate(90)"/>
  <path style="opacity:0.2" d="m 21.999266,-20.797019 a 1.722978,1.7460457 0 0 0 -0.229652,-0.821787 l -2.138364,-3.754305 -2.139207,-3.754305 a 1.722978,1.7460457 0 0 0 -2.983785,0 l -2.139207,3.754305 -2.138365,3.754305 A 1.722978,1.7460457 0 0 0 11.722158,-19 h 4.277572 4.277572 a 1.722978,1.7460457 0 0 0 1.721964,-1.797019 z"/>
  <path style="fill:#e4e4e4" d="m 21.999266,-21.797019 a 1.722978,1.7460457 0 0 0 -0.229652,-0.821787 l -2.138364,-3.754305 -2.139207,-3.754305 a 1.722978,1.7460457 0 0 0 -2.983785,0 l -2.139207,3.754305 -2.138365,3.754305 A 1.722978,1.7460457 0 0 0 11.722158,-20 h 4.277572 4.277572 a 1.722978,1.7460457 0 0 0 1.721964,-1.797019 z"/>
  <path style="opacity:0.2" d="m 21.999266,-9.2029808 a 1.722978,1.7460457 0 0 1 -0.229652,0.821787 l -2.138364,3.754305 -2.139207,3.754305 a 1.722978,1.7460457 0 0 1 -2.983785,0 l -2.139207,-3.754305 -2.138365,-3.754305 A 1.722978,1.7460457 0 0 1 11.722158,-11 h 4.277572 4.277572 a 1.722978,1.7460457 0 0 1 1.721964,1.7970192 z"/>
  <path style="fill:#e4e4e4" d="m 21.999266,-10.202981 a 1.722978,1.7460457 0 0 1 -0.229652,0.821787 l -2.138364,3.754305 -2.139207,3.754305 a 1.722978,1.7460457 0 0 1 -2.983785,0 L 12.369051,-5.626889 10.230686,-9.381194 A 1.722978,1.7460457 0 0 1 11.722158,-12 h 4.277572 4.277572 a 1.722978,1.7460457 0 0 1 1.721964,1.797019 z"/>
  <path style="opacity:0.2;fill:#ffffff" d="m 15.908203,-30.998047 a 1.722978,1.7460457 0 0 0 -1.400391,0.871094 l -2.138671,3.753906 -2.138672,3.753906 a 1.722978,1.7460457 0 0 0 -0.15625,1.373047 1.722978,1.7460457 0 0 1 0.15625,-0.373047 l 2.138672,-3.753906 2.138671,-3.753906 a 1.722978,1.7460457 0 0 1 2.984376,0 l 2.138671,3.753906 2.138672,3.753906 a 1.722978,1.7460457 0 0 1 0.15625,0.373047 A 1.722978,1.7460457 0 0 0 22,-21.796875 1.722978,1.7460457 0 0 0 21.769531,-22.619141 l -2.138672,-3.753906 -2.138671,-3.753906 a 1.722978,1.7460457 0 0 0 -1.583985,-0.871094 z"/>
  <path style="opacity:0.2;fill:#ffffff" d="M 11.722656,-12 A 1.722978,1.7460457 0 0 0 10.074219,-9.7539062 1.722978,1.7460457 0 0 1 11.722656,-11 H 16 20.277344 A 1.722978,1.7460457 0 0 1 21.925781,-9.7539062 1.722978,1.7460457 0 0 0 22,-10.203125 1.722978,1.7460457 0 0 0 20.277344,-12 H 16 Z"/>
 </g>
</svg>

<?xml version="1.0" encoding="UTF-8"?>
<svg width="32" height="32" version="1.1" xmlns="http://www.w3.org/2000/svg">
 <g id="16-16-zoom-fit-width" transform="translate(-435 43)">
  <rect x="489" y="-59" width="16" height="16" opacity=".001"/>
  <path d="m494-54.003-4 3 4 3v-2h6v2l4-3-4-3v2h-6z" fill="#dfdfdf"/>
 </g>
 <g id="16-16-zoom-fit-height" transform="rotate(90,242,-231)">
  <rect x="489" y="-59" width="16" height="16" opacity=".001"/>
  <path d="m494-54.003-4 3 4 3v-2h6v2l4-3-4-3v2h-6z" fill="#dfdfdf"/>
 </g>
 <g id="22-22-zoom-fit-width" transform="translate(-433,43)">
  <rect x="465" y="-65" width="22" height="22" opacity=".001"/>
  <path d="m472-58.003-5 4 5 4v-3h8v3l5-4-5-4v3h-8z" fill="#dfdfdf"/>
 </g>
 <g id="zoom-fit-width" transform="translate(0,-32)">
  <rect width="32" height="32" opacity=".001"/>
  <rect x="9" y="15" width="14" height="4" opacity=".2"/>
  <path d="m10.203 11.001a1.746 1.723 0 0 0-0.82179 0.22965l-3.7543 2.1384-3.7543 2.1392a1.746 1.723 0 0 0 0 2.9838l3.7543 2.1392 3.7543 2.1384a1.746 1.723 0 0 0 2.6188-1.4915v-8.5551a1.746 1.723 0 0 0-1.797-1.722z" opacity=".2"/>
  <path d="m21.797 11.001a1.746 1.723 0 0 1 0.82179 0.22965l3.7543 2.1384 3.7543 2.1392a1.746 1.723 0 0 1 0 2.9838l-3.7543 2.1392-3.7543 2.1384a1.746 1.723 0 0 1-2.6188-1.4915v-8.5551a1.746 1.723 0 0 1 1.797-1.722z" opacity=".2"/>
  <rect x="9" y="14" width="14" height="4" fill="#8e8e8e"/>
  <path d="m10.203 10.001a1.746 1.723 0 0 0-0.82179 0.22965l-3.7543 2.1384-3.7543 2.1392a1.746 1.723 0 0 0 0 2.9838l3.7543 2.1392 3.7543 2.1384a1.746 1.723 0 0 0 2.6188-1.4915v-8.5551a1.746 1.723 0 0 0-1.797-1.722z" fill="#e4e4e4"/>
  <path d="m21.797 10.001a1.746 1.723 0 0 1 0.82179 0.22965l3.7543 2.1384 3.7543 2.1392a1.746 1.723 0 0 1 0 2.9838l-3.7543 2.1392-3.7543 2.1384a1.746 1.723 0 0 1-2.6188-1.4915v-8.5551a1.746 1.723 0 0 1 1.797-1.722z" fill="#e4e4e4"/>
  <path d="m10.203 10a1.746 1.723 0 0 0-0.82227 0.23047l-7.5078 4.2773a1.746 1.723 0 0 0-0.79688 1.9922 1.746 1.723 0 0 1 0.79688-0.99219l7.5078-4.2773a1.746 1.723 0 0 1 0.82227-0.23047 1.746 1.723 0 0 1 1.7969 1.7227v-1a1.746 1.723 0 0 0-1.7969-1.7227z" fill="#fff" opacity=".2"/>
  <path d="m21.797 10a1.746 1.723 0 0 0-1.7969 1.7227v1a1.746 1.723 0 0 1 1.7969-1.7227 1.746 1.723 0 0 1 0.82227 0.23047l7.5078 4.2773a1.746 1.723 0 0 1 0.79688 0.99219 1.746 1.723 0 0 0-0.79688-1.9922l-7.5078-4.2773a1.746 1.723 0 0 0-0.82227-0.23047z" fill="#fff" opacity=".2"/>
 </g>
 <g id="22-22-zoom-fit-height" transform="rotate(90,222,-233)">
  <rect x="465" y="-65" width="22" height="22" opacity=".001"/>
  <path d="m472-58.003-5 4 5 4v-3h8v3l5-4-5-4v3h-8z" fill="#dfdfdf"/>
 </g>
 <g id="zoom-fit-height" transform="translate(0,32)">
  <rect transform="rotate(90)" x="-32" y="-32" width="32" height="32" opacity=".001"/>
  <rect transform="rotate(90)" x="-23" y="-18" width="14" height="4" fill="#8e8e8e"/>
  <path d="m21.999-20.797a1.723 1.746 0 0 0-0.22965-0.82179l-2.1384-3.7543-2.1392-3.7543a1.723 1.746 0 0 0-2.9838 0l-2.1392 3.7543-2.1384 3.7543a1.723 1.746 0 0 0 1.4915 2.6188h8.5551a1.723 1.746 0 0 0 1.722-1.797z" opacity=".2"/>
  <path d="m21.999-21.797a1.723 1.746 0 0 0-0.22965-0.82179l-2.1384-3.7543-2.1392-3.7543a1.723 1.746 0 0 0-2.9838 0l-2.1392 3.7543-2.1384 3.7543a1.723 1.746 0 0 0 1.4915 2.6188h8.5551a1.723 1.746 0 0 0 1.722-1.797z" fill="#e4e4e4"/>
  <path d="m21.999-9.203a1.723 1.746 0 0 1-0.22965 0.82179l-2.1384 3.7543-2.1392 3.7543a1.723 1.746 0 0 1-2.9838 0l-2.1392-3.7543-2.1384-3.7543a1.723 1.746 0 0 1 1.4915-2.6188h8.5551a1.723 1.746 0 0 1 1.722 1.797z" opacity=".2"/>
  <path d="m21.999-10.203a1.723 1.746 0 0 1-0.22965 0.82179l-2.1384 3.7543-2.1392 3.7543a1.723 1.746 0 0 1-2.9838 0l-2.1392-3.7543-2.1384-3.7543a1.723 1.746 0 0 1 1.4915-2.6188h8.5551a1.723 1.746 0 0 1 1.722 1.797z" fill="#e4e4e4"/>
  <path d="m15.908-30.998a1.723 1.746 0 0 0-1.4004 0.87109l-4.2773 7.5078a1.723 1.746 0 0 0-0.15625 1.373 1.723 1.746 0 0 1 0.15625-0.37305l4.2773-7.5078a1.723 1.746 0 0 1 2.9844 0l4.2773 7.5078a1.723 1.746 0 0 1 0.15625 0.37305 1.723 1.746 0 0 0 0.074219-0.55078 1.723 1.746 0 0 0-0.23047-0.82227l-4.2773-7.5078a1.723 1.746 0 0 0-1.584-0.87109z" fill="#fff" opacity=".2"/>
  <path d="m11.723-12a1.723 1.746 0 0 0-1.6484 2.2461 1.723 1.746 0 0 1 1.6484-1.2461h8.5547a1.723 1.746 0 0 1 1.6484 1.2461 1.723 1.746 0 0 0 0.074219-0.44922 1.723 1.746 0 0 0-1.7227-1.7969h-4.2773z" fill="#fff" opacity=".2"/>
 </g>
</svg>
